assets/icons/bowtie/1.22/uE667-search-filter.svg

<svg xmlns="http://www.w3.org/2000/svg" viewBox="0 0 448 448" enable-background="new 0 0 448 448"><path d="M288 448h-128v-202.203l-160-192v-53.797h448v53.797l-160 192v202.203zm-96-32h64v-181.797l160-192v-10.203h-384v10.203l160 192v181.797z"/></svg>

<svg xmlns="http://www.w3.org/2000/svg" viewBox="0 0 448 448"><path d="M288 448H160V245.797l-160-192V0h448v53.797l-160 192V448zm-96-32h64V234.203l160-192V32H32v10.203l160 192V416z"/></svg>
